X: 10121
Q: "Andante"
M: C
L: 1/8
K: D
!segno!: d | d2 c B A2 ((3Bc d) | F> F G E D3 d |
{e}d2 c B A2 ((3Bc d) | F F G E D3 ||
{e/}d2 c B A2 (GB/G/) | F F G E D3 A |
{e/}d2 c ~B A2 (GB/G/) | F F G E D3 "_Sym:"A |
d2 c~B {B}A2 {A/}GB/G/ | FFGE D3 |]



